assets/icons/lib/bell-off.svg

<svg class="Icon Icon-bell-off" width="24" height="24" viewBox="0 0 24 24" fill="none" xmlns="http://www.w3.org/2000/svg">
<g clip-path="url(#clip0_1361_404)">
<path fill-rule="evenodd" clip-rule="evenodd" d="M1.70711 0.292893C1.31658 -0.0976311 0.683417 -0.0976311 0.292893 0.292893C-0.0976311 0.683417 -0.0976311 1.31658 0.292893 1.70711L5.58025 6.99447L5 8.00103C4.99985 11.3531 4.28286 13.4347 3.62211 14.6461C3.29031 15.2544 2.96723 15.6534 2.7428 15.8903C2.63032 16.0091 2.54194 16.0878 2.48872 16.1321C2.4621 16.1543 2.44425 16.1679 2.43655 16.1736L2.43369 16.1758C2.07521 16.422 1.91657 16.8725 2.04291 17.2897C2.17061 17.7115 2.55933 18 3 18H16.5857L22.2929 23.7071C22.6834 24.0976 23.3166 24.0976 23.7071 23.7071C24.0976 23.3166 24.0976 22.6834 23.7071 22.2929L17.7132 16.2989C17.7091 16.2949 17.7051 16.2908 17.701 16.2868L6.98185 5.56764C6.97184 5.55718 6.96159 5.54693 6.95111 5.53689L1.70711 0.292893ZM6.99665 8.41086C6.94036 11.83 6.18515 14.1238 5.3779 15.6038C5.3018 15.7433 5.22541 15.8753 5.14933 15.9999H14.5857L6.99665 8.41086ZM11.6627 0.999221C12.9293 0.938119 14.1888 1.22224 15.3065 1.82122C16.4242 2.42021 17.3582 3.31157 18.0087 4.40008C18.6588 5.4879 19.0014 6.73179 19 7.99904L18.9999 8.01598C18.9744 9.60967 19.1747 11.1989 19.5947 12.7365C19.7402 13.2693 19.4263 13.8191 18.8935 13.9647C18.3607 14.1102 17.8109 13.7963 17.6653 13.2635C17.1963 11.5465 16.9723 9.77187 17 7.99221C17.0002 7.08861 16.7555 6.20179 16.2919 5.42608C15.8273 4.64857 15.1601 4.01189 14.3618 3.58404C13.5634 3.15619 12.6638 2.95325 11.7591 2.9969C10.8544 3.04054 9.97847 3.32913 9.225 3.83184C8.76558 4.13836 8.14467 4.01441 7.83815 3.55499C7.53163 3.09558 7.65558 2.47466 8.115 2.16814C9.16986 1.46435 10.3961 1.06032 11.6627 0.999221ZM9.76823 20.135C10.246 19.8579 10.8579 20.0205 11.135 20.4983C11.2229 20.6498 11.3491 20.7756 11.5009 20.863C11.6527 20.9505 11.8248 20.9965 12 20.9965C12.1752 20.9965 12.3473 20.9505 12.4991 20.863C12.6509 20.7756 12.7771 20.6498 12.865 20.4983C13.1421 20.0205 13.754 19.8579 14.2318 20.135C14.7095 20.4122 14.8721 21.0241 14.595 21.5018C14.3313 21.9564 13.9528 22.3338 13.4973 22.5961C13.0419 22.8584 12.5256 22.9965 12 22.9965C11.4744 22.9965 10.9581 22.8584 10.5027 22.5961C10.0472 22.3338 9.66872 21.9564 9.405 21.5018C9.12788 21.0241 9.2905 20.4122 9.76823 20.135Z" fill="currentColor"/>
</g>
<defs>
<clipPath id="clip0_1361_404">
<rect width="24" height="24" fill="currentColor"/>
</clipPath>
</defs>
</svg>

<svg class="Icon Icon-bell-off" viewBox="0 0 24 24" fill="none" xmlns="http://www.w3.org/2000/svg"><g clip-path="url(#a)"><path fill-rule="evenodd" clip-rule="evenodd" d="M1.707.293A1 1 0 0 0 .293 1.707L5.58 6.994 5 8.001c0 3.352-.717 5.434-1.378 6.645a5.936 5.936 0 0 1-.88 1.244 3.002 3.002 0 0 1-.305.284l-.003.002A1 1 0 0 0 3 18h13.586l5.707 5.707a1 1 0 0 0 1.414-1.414l-5.994-5.994-.012-.012-10.72-10.72-.03-.03L1.707.293Zm5.29 8.118c-.057 3.419-.812 5.713-1.62 7.193A9.38 9.38 0 0 1 5.15 16h9.437l-7.59-7.59ZM11.663.999A7 7 0 0 1 19 8v.017a16.89 16.89 0 0 0 .595 4.72 1 1 0 0 1-1.93.527A18.89 18.89 0 0 1 17 7.994a5 5 0 0 0-7.775-4.161 1 1 0 1 1-1.11-1.664A7 7 0 0 1 11.663 1ZM9.768 20.135a1 1 0 0 1 1.367.363 1 1 0 0 0 1.73 0 1 1 0 1 1 1.73 1.004 3 3 0 0 1-5.19 0 1 1 0 0 1 .363-1.367Z" fill="currentColor"/></g><defs><clipPath id="a"><path fill="currentColor" d="M0 0h24v24H0z"/></clipPath></defs></svg>
